flaticon/transportation/train-4.svg

<svg xmlns="http://www.w3.org/2000/svg" width="32" height="32" viewBox="0 0 24 24">
    <path d="M 18.039062 2.28125 L 16.960938 0.996094 C 16.429688 0.363281 15.648438 0 14.824219 0 L 9.179688 0 C 8.351562 0 7.570312 0.363281 7.039062 0.996094 L 5.964844 2.28125 C 2.070312 6.925781 2.050781 14.472656 5.910156 19.144531 L 3.417969 23.484375 L 4.3125 24 L 6.625 19.976562 C 8.09375 21.550781 9.984375 22.414062 12 22.414062 C 14.015625 22.414062 15.90625 21.550781 17.375 19.976562 L 19.6875 24 L 20.585938 23.484375 L 18.089844 19.144531 C 21.949219 14.472656 21.929688 6.925781 18.039062 2.28125 Z M 12 21.382812 C 8.878906 21.382812 6.753906 18.542969 6.753906 18.542969 C 1.6875 11.890625 4.660156 4.695312 7.832031 1.660156 C 8.207031 1.300781 8.65625 1.03125 9.179688 1.03125 L 14.824219 1.03125 C 15.34375 1.03125 15.792969 1.300781 16.167969 1.660156 C 18.65625 4.015625 22.820312 11.207031 17.246094 18.542969 C 17.246094 18.542969 15.300781 21.382812 12 21.382812 Z M 12 21.382812"/>
    <path d="M16.351562 15.445312L17.078125 16.175781 14.671875 18.582031 13.941406 17.851562zM6.921875 16.175781L9.328125 18.582031 10.058594 17.851562 7.652344 15.445312zM17.003906 11.628906C17.644531 10.804688 17.867188 9.753906 17.609375 8.742188L16.878906 5.855469C16.503906 4.363281 15.164062 3.320312 13.625 3.320312L10.375 3.320312C8.835938 3.320312 7.496094 4.363281 7.121094 5.855469L6.390625 8.742188C6.132812 9.753906 6.355469 10.804688 6.996094 11.628906 7.636719 12.449219 8.601562 12.921875 9.644531 12.921875L14.355469 12.921875C15.398438 12.921875 16.363281 12.449219 17.003906 11.628906zM7.8125 10.992188C7.367188 10.425781 7.214844 9.695312 7.390625 8.996094L8.121094 6.109375C8.382812 5.074219 9.308594 4.351562 10.375 4.351562L13.625 4.351562C14.691406 4.351562 15.617188 5.074219 15.878906 6.109375L16.609375 8.996094C16.785156 9.695312 16.632812 10.425781 16.1875 10.992188 15.746094 11.5625 15.078125 11.890625 14.355469 11.890625L9.644531 11.890625C8.921875 11.890625 8.253906 11.5625 7.8125 10.992188zM7.8125 10.992188"/>
</svg>

<svg xmlns="http://www.w3.org/2000/svg" width="32" height="32" viewBox="0 0 24 24">
    <path d="M18.04 2.281L16.96.996A2.787 2.787 0 0 0 14.825 0H9.18a2.79 2.79 0 0 0-2.14.996L5.964 2.281C2.07 6.926 2.05 14.473 5.91 19.145l-2.492 4.34.894.515 2.313-4.023c1.469 1.574 3.36 2.437 5.375 2.437 2.016 0 3.906-.863 5.375-2.437L19.688 24l.898-.516-2.496-4.34c3.86-4.671 3.84-12.218-.05-16.863zM12 21.383c-3.121 0-5.246-2.84-5.246-2.84C1.688 11.891 4.66 4.695 7.832 1.66c.375-.36.824-.629 1.348-.629h5.644c.52 0 .969.27 1.344.63 2.488 2.355 6.652 9.546 1.078 16.882 0 0-1.945 2.84-5.246 2.84zm0 0"/>
    <path d="M16.352 15.445l.726.73-2.406 2.407-.73-.73zm-9.43.73l2.406 2.407.73-.73-2.406-2.407zm0 0M17.004 11.629c.64-.824.863-1.875.605-2.887l-.73-2.887a3.352 3.352 0 0 0-3.254-2.535h-3.25a3.352 3.352 0 0 0-3.254 2.535l-.73 2.887a3.332 3.332 0 0 0 .605 2.887 3.34 3.34 0 0 0 2.649 1.293h4.71a3.34 3.34 0 0 0 2.649-1.293zm-9.192-.637a2.304 2.304 0 0 1-.421-1.996l.73-2.887a2.323 2.323 0 0 1 2.254-1.757h3.25c1.066 0 1.992.722 2.254 1.757l.73 2.887c.176.7.024 1.43-.422 1.996-.44.57-1.109.899-1.832.899h-4.71c-.723 0-1.391-.329-1.832-.899zm0 0"/>
</svg>
